X:15
T:Alistairs half-remembered polka
S:Alistair Cochrane
R:Polka
O:England
M:4/4
K:A
AB|\
c2A2 Ac ef|e2(E2 E2)AB|\
M:6/4
c2A2 Ac ef e2ef|\
M:4/4
g2g2 g2g2|fe dc B4|
|1 f2f2 f2f2|\
M:6/4
ed cd e2 (E2 E2) :|2\
M:4/4
e2 ee fe fg|"Fine"a2(A2 A2)\
|:Ac|\
e2e2 e3f|e2(G2 G2)Bc|
d2f2 g2fg|e6 (3efg|\
a2a2 a3a|g2(B2 B2)Bc|d2d<d c<(B B2)\
|1 e6 :|2\
M:6/4
A6(E2 E2):|
